X: 34221
T: Reel St-Michel
R: reel
M: 4/4
K: Gmajor
|:g~G3 f~G3|e~G3 d~G3|F2AF DFAF|GABc d2ef|
g~G3 f~G3|e~G3 d~G3|F2AF DFAF|1 GBAF G2f2:|2 GBAF G2AG||
K:Dmaj
|:FAdf a2AG|FAdf a2gf|eAcA eAcA|eAcA B2AG|
FAdf a2AG|FAdf a2gf|eAcA eABc|1 defe d2AG:|2 defe d2f2||

